map-marker-alert.svg

<svg fill="currentColor" viewBox="0 0 24 24"><path d="M12 2c3.9 0 7 3.1 7 7 0 5.2-7 13-7 13S5 14.2 5 9c0-3.9 3.1-7 7-7m-1 4v6h2V6zm0 8v2h2v-2z"/></svg>

<svg  viewBox="0 0 24 24" fill="currentColor"><path  d="M12 2C15.9 2 19 5.1 19 9C19 14.2 12 22 12 22S5 14.2 5 9C5 5.1 8.1 2 12 2M11 6V12H13V6H11M11 14V16H13V14H11Z"/></svg>
